src/images/github.svg

<svg width="24" height="24" fill="none" xmlns="http://www.w3.org/2000/svg"><path fill-rule="evenodd" clip-rule="evenodd" d="M11.9998 1.89478C6.41678 1.89478 1.89453 6.42322 1.89453 12c0 4.4665 2.89697 8.2505 6.91054 9.5904.50247.0931.68857-.2171.68857-.49 0-.242-.0062-.8747-.01241-1.7184-2.81012.608-3.40564-1.3523-3.40564-1.3523-.45905-1.1662-1.12281-1.4764-1.12281-1.4764-.91809-.6265.06824-.6141.06824-.6141 1.01115.0744 1.55084 1.0421 1.55084 1.0421.89949 1.5447 2.36348 1.098 2.94039.8375.09305-.6514.35359-1.098.63895-1.3523-2.24562-.2544-4.60289-1.1229-4.60289-4.9937 0-1.1042.39081-2.00373 1.04216-2.71091-.10546-.25434-.45285-1.2841.09925-2.67365 0 0 .84986-.27294 2.7791 1.03596.80648-.22332 1.66868-.33498 2.53098-.34118.8561.0062 1.7245.11786 2.531.34118 1.9292-1.3089 2.7791-1.03596 2.7791-1.03596.5521 1.38955.2047 2.41931.0992 2.67365.6452.70718 1.036 1.60671 1.036 2.71091 0 3.8833-2.3635 4.7331-4.6153 4.9874.3598.3102.6886.9306.6886 1.8735 0 1.3523-.0125 2.4379-.0125 2.7729 0 .2729.1799.5831.6948.4838 4.0136-1.3399 6.9044-5.1239 6.9044-9.5842 0-5.58298-4.5223-10.11142-10.1053-10.11142z" fill="#191717"/></svg>

<svg width="24" height="24" viewBox="0 0 24 24" fill="none" xmlns="http://www.w3.org/2000/svg">
<path fill-rule="evenodd" clip-rule="evenodd" d="M11.9998 1.89478C6.41678 1.89478 1.89453 6.42322 1.89453 12C1.89453 16.4665 4.7915 20.2505 8.80507 21.5904C9.30754 21.6835 9.49364 21.3733 9.49364 21.1004C9.49364 20.8584 9.48744 20.2257 9.48123 19.382C6.67111 19.99 6.07559 18.0297 6.07559 18.0297C5.61654 16.8635 4.95278 16.5533 4.95278 16.5533C4.03469 15.9268 5.02102 15.9392 5.02102 15.9392C6.03217 16.0136 6.57186 16.9813 6.57186 16.9813C7.47135 18.526 8.93534 18.0793 9.51225 17.8188C9.6053 17.1674 9.86584 16.7208 10.1512 16.4665C7.90558 16.2121 5.54831 15.3436 5.54831 11.4728C5.54831 10.3686 5.93912 9.46907 6.59047 8.76189C6.48501 8.50755 6.13762 7.47779 6.68972 6.08824C6.68972 6.08824 7.53958 5.8153 9.46882 7.1242C10.2753 6.90088 11.1375 6.78922 11.9998 6.78302C12.8559 6.78922 13.7243 6.90088 14.5308 7.1242C16.46 5.8153 17.3099 6.08824 17.3099 6.08824C17.862 7.47779 17.5146 8.50755 17.4091 8.76189C18.0543 9.46907 18.4451 10.3686 18.4451 11.4728C18.4451 15.3561 16.0816 16.2059 13.8298 16.4602C14.1896 16.7704 14.5184 17.3908 14.5184 18.3337C14.5184 19.686 14.5059 20.7716 14.5059 21.1066C14.5059 21.3795 14.6858 21.6897 15.2007 21.5904C19.2143 20.2505 22.1051 16.4665 22.1051 12.0062C22.1051 6.42322 17.5828 1.89478 11.9998 1.89478Z" fill="#191717"/>
</svg>
